X:329
T:Honorable Miss Drummond of Perth, The
R:Strathspey
C:John Bowie
B:The Athole Collection
M:C
L:1/8
K:D
F|D>AF>A D<d d>B|A<D F>D E<B, B,>E|D>AF>A D<g f>e|
d>BA>F D/D/D D:|
|:f|d/e/f/g/ a<d f<d a>d|A/B/c/d/ e>A c>Ae>A|1 d/e/f/g/ a>d f>da>d|
A<g f>e f<dd:|2 d>fe>g f>d e<f|d>BA>F D/D/D D||

